svg/color/aggl.svg

<?xml version="1.0" encoding="UTF-8" ?>
<!DOCTYPE svg PUBLIC "-//W3C//DTD SVG 1.1//EN" "http://www.w3.org/Graphics/SVG/1.1/DTD/svg11.dtd">
<svg width="250pt" height="223pt" viewBox="0 0 250 223" version="1.1" xmlns="http://www.w3.org/2000/svg">
<g id="#ffffffff">
<path fill="#ffffff" opacity="1.00" d=" M 0.00 0.00 L 250.00 0.00 L 250.00 223.00 L 0.00 223.00 L 0.00 0.00 M 105.12 25.10 C 80.89 34.04 56.58 42.74 32.34 51.65 C 32.31 52.21 32.23 53.32 32.19 53.87 C 58.71 63.85 85.47 73.19 112.01 83.12 C 114.10 83.84 116.35 85.03 118.51 83.84 C 142.83 74.82 167.27 66.13 191.62 57.17 C 195.10 55.90 199.01 55.20 201.72 52.46 C 196.03 49.78 190.00 47.96 184.12 45.75 C 163.99 38.48 143.92 31.02 123.75 23.85 C 117.62 22.88 110.95 22.59 105.12 25.10 M 25.67 62.49 C 24.38 63.61 24.68 65.41 24.60 66.93 C 24.65 72.63 24.55 78.33 24.64 84.03 C 24.58 87.13 27.08 89.59 29.86 90.54 C 47.08 96.78 64.29 103.05 81.49 109.32 C 87.52 111.79 86.19 119.30 86.18 124.51 C 67.90 118.67 50.00 111.65 31.80 105.54 C 27.87 104.29 24.33 108.21 24.62 111.97 C 24.60 129.66 24.63 147.35 24.60 165.04 C 24.38 170.90 28.45 176.44 33.94 178.33 C 58.30 187.10 82.57 196.09 106.94 204.84 C 108.50 205.58 110.04 205.47 111.55 204.53 C 111.92 167.23 111.55 129.91 111.73 92.60 C 104.97 89.34 97.68 87.40 90.74 84.58 C 70.86 77.42 51.02 70.17 31.18 62.93 C 29.43 62.31 27.49 61.89 25.67 62.49 M 200.94 63.14 C 174.21 73.10 147.24 82.43 120.60 92.63 C 120.52 127.43 120.61 162.23 120.55 197.02 C 120.57 199.17 120.44 201.33 120.73 203.47 C 121.51 204.98 122.96 206.11 124.69 205.28 C 149.40 196.41 174.03 187.29 198.74 178.40 C 203.81 176.62 208.05 171.67 207.73 166.09 C 207.72 147.70 207.81 129.31 207.69 110.92 C 207.90 107.58 204.24 104.49 201.00 105.66 C 186.73 110.60 172.65 116.06 158.38 120.99 C 157.17 121.51 155.13 122.10 155.54 123.85 C 155.58 132.60 155.48 141.35 155.61 150.10 C 164.04 148.12 171.72 143.67 180.27 142.14 C 182.50 144.95 181.45 148.76 181.62 152.07 C 181.98 155.75 178.28 157.89 175.27 158.91 C 166.56 161.85 158.04 165.33 149.31 168.22 C 148.46 167.56 147.61 166.89 146.76 166.24 C 146.45 149.80 146.73 133.36 146.62 116.92 C 146.20 113.47 148.64 110.18 151.85 109.08 C 168.65 103.12 185.32 96.80 202.14 90.89 C 204.71 89.90 207.88 88.16 207.67 84.95 C 207.73 77.46 207.99 69.93 207.46 62.45 C 205.26 62.17 203.00 62.25 200.94 63.14 Z" />
<path fill="#ffffff" opacity="1.00" d=" M 51.59 142.51 C 53.27 142.48 55.01 142.28 56.61 142.89 C 66.28 146.09 75.76 149.85 85.52 152.79 C 85.47 157.56 86.26 162.52 85.12 167.18 C 83.02 168.18 80.67 167.33 78.63 166.60 C 71.68 164.00 64.74 161.36 57.71 159.01 C 54.89 158.09 51.85 156.48 51.06 153.37 C 50.26 149.82 50.41 145.97 51.59 142.51 Z" />
</g>
<g id="#000c48ff">
<path fill="#000c48" opacity="1.00" d=" M 105.12 25.10 C 110.95 22.59 117.62 22.88 123.75 23.85 C 143.92 31.02 163.99 38.48 184.12 45.75 C 190.00 47.96 196.03 49.78 201.72 52.46 C 199.01 55.20 195.10 55.90 191.62 57.17 C 167.27 66.13 142.83 74.82 118.51 83.84 C 116.35 85.03 114.10 83.84 112.01 83.12 C 85.47 73.19 58.71 63.85 32.19 53.87 C 32.23 53.32 32.31 52.21 32.34 51.65 C 56.58 42.74 80.89 34.04 105.12 25.10 Z" />
<path fill="#000c48" opacity="1.00" d=" M 25.67 62.49 C 27.49 61.89 29.43 62.31 31.18 62.93 C 51.02 70.17 70.86 77.42 90.74 84.58 C 97.68 87.40 104.97 89.34 111.73 92.60 C 111.55 129.91 111.92 167.23 111.55 204.53 C 110.04 205.47 108.50 205.58 106.94 204.84 C 82.57 196.09 58.30 187.10 33.94 178.33 C 28.45 176.44 24.38 170.90 24.60 165.04 C 24.63 147.35 24.60 129.66 24.62 111.97 C 24.33 108.21 27.87 104.29 31.80 105.54 C 50.00 111.65 67.90 118.67 86.18 124.51 C 86.19 119.30 87.52 111.79 81.49 109.32 C 64.29 103.05 47.08 96.78 29.86 90.54 C 27.08 89.59 24.58 87.13 24.64 84.03 C 24.55 78.33 24.65 72.63 24.60 66.93 C 24.68 65.41 24.38 63.61 25.67 62.49 M 51.59 142.51 C 50.41 145.97 50.26 149.82 51.06 153.37 C 51.85 156.48 54.89 158.09 57.71 159.01 C 64.74 161.36 71.68 164.00 78.63 166.60 C 80.67 167.33 83.02 168.18 85.12 167.18 C 86.26 162.52 85.47 157.56 85.52 152.79 C 75.76 149.85 66.28 146.09 56.61 142.89 C 55.01 142.28 53.27 142.48 51.59 142.51 Z" />
<path fill="#000c48" opacity="1.00" d=" M 200.94 63.14 C 203.00 62.25 205.26 62.17 207.46 62.45 C 207.99 69.93 207.73 77.46 207.67 84.95 C 207.88 88.16 204.71 89.90 202.14 90.89 C 185.32 96.80 168.65 103.12 151.85 109.08 C 148.64 110.18 146.20 113.47 146.62 116.92 C 146.73 133.36 146.45 149.80 146.76 166.24 C 147.61 166.89 148.46 167.56 149.31 168.22 C 158.04 165.33 166.56 161.85 175.27 158.91 C 178.28 157.89 181.98 155.75 181.62 152.07 C 181.45 148.76 182.50 144.95 180.27 142.14 C 171.72 143.67 164.04 148.12 155.61 150.10 C 155.48 141.35 155.58 132.60 155.54 123.85 C 155.13 122.10 157.17 121.51 158.38 120.99 C 172.65 116.06 186.73 110.60 201.00 105.66 C 204.24 104.49 207.90 107.58 207.69 110.92 C 207.81 129.31 207.72 147.70 207.73 166.09 C 208.05 171.67 203.81 176.62 198.74 178.40 C 174.03 187.29 149.40 196.41 124.69 205.28 C 122.96 206.11 121.51 204.98 120.73 203.47 C 120.44 201.33 120.57 199.17 120.55 197.02 C 120.61 162.23 120.52 127.43 120.60 92.63 C 147.24 82.43 174.21 73.10 200.94 63.14 Z" />
</g>
</svg>

<?xml version="1.0" encoding="utf-8"?>
<!-- Generator: Adobe Illustrator 26.0.3, SVG Export Plug-In . SVG Version: 6.00 Build 0)  -->
<svg version="1.1" id="Layer_1" xmlns="http://www.w3.org/2000/svg" xmlns:xlink="http://www.w3.org/1999/xlink" x="0px" y="0px"
	 viewBox="0 0 250 223" style="enable-background:new 0 0 250 223;" xml:space="preserve">
<style type="text/css">
	.st0{fill:#FFFFFF;}
	.st1{fill:#000C48;}
</style>
<g id="_x23_ffffffff">
	<path class="st0" d="M51.6,142.5c1.7,0,3.4-0.2,5,0.4c9.7,3.2,19.2,7,28.9,9.9c0,4.8,0.7,9.7-0.4,14.4c-2.1,1-4.5,0.2-6.5-0.6
		c-6.9-2.6-13.9-5.2-20.9-7.6c-2.8-0.9-5.9-2.5-6.6-5.6C50.3,149.8,50.4,146,51.6,142.5z"/>
</g>
<g id="_x23_000c48ff">
	<path class="st1" d="M105.1,25.1c5.8-2.5,12.5-2.2,18.6-1.2c20.2,7.2,40.2,14.6,60.4,21.9c5.9,2.2,11.9,4,17.6,6.7
		c-2.7,2.7-6.6,3.4-10.1,4.7c-24.3,9-48.8,17.7-73.1,26.7c-2.2,1.2-4.4,0-6.5-0.7c-26.5-9.9-53.3-19.3-79.8-29.3
		c0-0.5,0.1-1.7,0.2-2.2C56.6,42.7,80.9,34,105.1,25.1z"/>
	<path class="st1" d="M25.7,62.5c1.8-0.6,3.8-0.2,5.5,0.4C51,70.2,70.9,77.4,90.7,84.6c6.9,2.8,14.2,4.8,21,8
		c-0.2,37.3,0.2,74.6-0.2,111.9c-1.5,0.9-3.1,1.1-4.6,0.3c-24.4-8.8-48.6-17.7-73-26.5c-5.5-1.9-9.6-7.4-9.3-13.3
		c0-17.7,0-35.4,0-53.1c-0.3-3.8,3.2-7.7,7.2-6.4c18.2,6.1,36.1,13.1,54.4,19c0-5.2,1.3-12.7-4.7-15.2
		c-17.2-6.3-34.4-12.5-51.6-18.8c-2.8-1-5.3-3.4-5.2-6.5c-0.1-5.7,0-11.4,0-17.1C24.7,65.4,24.4,63.6,25.7,62.5 M51.6,142.5
		c-1.2,3.5-1.3,7.3-0.5,10.9c0.8,3.1,3.8,4.7,6.6,5.6c7,2.4,14,5,20.9,7.6c2,0.7,4.4,1.6,6.5,0.6c1.1-4.7,0.3-9.6,0.4-14.4
		c-9.8-2.9-19.2-6.7-28.9-9.9C55,142.3,53.3,142.5,51.6,142.5z"/>
	<path class="st1" d="M200.9,63.1c2.1-0.9,4.3-1,6.5-0.7c0.5,7.5,0.3,15,0.2,22.5c0.2,3.2-3,5-5.5,5.9
		c-16.8,5.9-33.5,12.2-50.3,18.2c-3.2,1.1-5.7,4.4-5.2,7.8c0.1,16.4-0.2,32.9,0.1,49.3c0.9,0.6,1.7,1.3,2.6,2
		c8.7-2.9,17.2-6.4,26-9.3c3-1,6.7-3.2,6.3-6.8c-0.2-3.3,0.9-7.1-1.3-9.9c-8.6,1.5-16.2,6-24.7,8c-0.1-8.8,0-17.5-0.1-26.3
		c-0.4-1.8,1.6-2.3,2.8-2.9c14.3-4.9,28.3-10.4,42.6-15.3c3.2-1.2,6.9,1.9,6.7,5.3c0.1,18.4,0,36.8,0,55.2c0.3,5.6-3.9,10.5-9,12.3
		c-24.7,8.9-49.3,18-74.1,26.9c-1.7,0.8-3.2-0.3-4-1.8c-0.3-2.1-0.2-4.3-0.2-6.4c0.1-34.8,0-69.6,0-104.4
		C147.2,82.4,174.2,73.1,200.9,63.1z"/>
</g>
</svg>
